X: 68
M:6/8
L:1/8
K:G
uD|GBd g2d|ed^c d2B|cBA BAG|AB^c d2D|
uB|dBA B2G|dcA B2G|def gfe|dcB A2B|
c2e efg|B2d dBG|Aa(g {g}f)ef|gba g2:|


